X:040
T:Wood’s Hornpipe TS.040
M:C|
L:1/8
Q:1/2=90
S:Thomas Sands’ MS,1810,Lincolnshire
R:.hornpipe
C:Prefixed as ‘No.28′ in MS
O:England;Lincolnshire
Z:vmp.Ruairidh Greig, 2011
K:A
(E/F/G)|A2AAA2(cd)|ecea ecBA|(fe)(dc) (dc)(BA)|GABcB2E2|
A2AA”tr”A2cd|ecea ecBA|fedc dcBA|E2G2{B}”tr”A4:|
|:(cd)|ecea ecea|fdfa fdfa|fedc dcBA|GABc”tr”B2cd|
ecea ecea|fdfa fdfa|fedc dcBA|E2G2″tr”A4:|]

